X:1
T:Premier Tambourin
T:Troisième Concert
T:Premier Tambourin
T:Jean-Philippe Rameau (1683-1764) 
T:Troisième Concert 
T:RCT 9
T:Transcription pour clavier seul de Pierre Gouin.
T:2e Tambourin
T:Oli 2020
T:Oli 2020
C:Jean-Philippe Rameau
C:(1683-1764)
C:
Z:Oli 2020
%%score { ( 1 3 ) | ( 2 4 ) }
L:1/8
Q:1/4=144
M:2/4
K:A
V:1 treble nm="Piano"
V:3 treble 
V:2 bass 
V:4 bass 
V:1
"^(Vivement)"!mf! A2 A2 | AaAB | [Ac]aP[Ac]B | AaAd | [df]/[ce]/[Bd]/[ce]/ [df][fa] | %5
 [FAd][FAd] [FAd]2 | [df]/[ce]/[Bd]/[ce]/ [df][fa] | [EAc][EAc][EAc]e | [DGB][DGB] [DGB]2 | %9
 [ce]/[Bd]/[Ac]/[Bd]/ [ce]/[Bd]/[Ac]/[Bd]/ | [ce]/[Bd]/[Ac]/[Bd]/ [ce]/[Bd]/[Ac]/[Bd]/ | %11
 [ce]/[Bd]/[Ac]/[Bd]/ [ce]/[Bd]/[Ac]/[B^d]/ | [GBe][GBe] E2 :| E2 E2 | EeEF | [EG]eP[EG]F | %16
 E2 [EG][FA] |S [GB]/[FA]/[EG]/[FA]/ [GB][Ac] | [FBd]2 [FBd]2 | [FA]/[EG]/[DF]/[EG]/ [FA][GB] | %20
 [EAc]2 [EAc]2 |"^Petite reprise" e/d/c/d/ e/d/c/d/ | e/d/c/d/ e/d/c/d/ | e/d/c/d/ e/d/c/d/ | %24
 e aAB | caPcB | [Ae][ca]A[FAB] | [EAc][Aa][Ac][DGB] | [CEA]2 [A,CEA]2!fine! || B2 B2 | EeEF | %31
 [EG]e[EG]F | E2 [EG][FA]!D.S.! |:[K:C] a2 a2 | a/e/f/d/ e/c/d/B/ | [ca]2 [ca]2 | %36
 a/e/f/d/ e/c/d/B/ | cAce | e/B/c/d/ ^G/G/A/B/ |"^(#)" Mc2 Mc2 | a/e/f/d/ e/c/d/B/ | [ca]2 [ca]2 | %42
 a/e/f/d/ e/c/d/B/ | c/e/c/A/ B/d/B/^G/ | A2 [CEA]2!fine! :| c'2 c'2 | c'/g/a/f/ g/e/f/d/ | %47
 Mc'2 Mc'2 | c'/g/a/f/ g/e/f/d/ | eceg | f/e/d/c/ Md2 | g/e/f/d/ e/c/d/B/ | A/c/B/d/ c/f/e/d/ | %53
 [eg]/f/e/d/ c/B/A/G/ | c2 [EGc]2!D.C.! || %55
V:2
 z4 | A,2 A,2 | [A,,,E,,A,,]2 [A,,,E,,A,,]2 | [A,,,E,,A,,]4 | [A,,F,A,]2 [A,,F,A,]2 | %5
 [A,,D,F,A,][A,,D,F,A,] [A,,D,F,A,]2 | [A,,F,A,]2 [A,,F,A,]2 | [A,,E,A,][A,,E,A,] [A,,E,A,]2 | %8
 [A,,E,G,][A,,E,G,] [A,,E,G,]2 | [A,,,E,,A,,]2 [A,,,E,,A,,]2 | [A,,,E,,A,,]4 | %11
 [A,,,E,,A,,]2 [A,,,E,,A,,]2 | [E,,B,,E,]2 [E,,B,,E,]2 :| z4 | E,2 E,2 | [E,,E,]2 [E,,E,]2 | %16
 [E,,E,]2 [E,,E,]2 | [E,,E,]2 [E,,E,]2 | [B,,,B,,]2 [B,,,B,,]2 | [D,,D,]2 [D,,D,]2 | %20
 [A,,,A,,]2 [A,,,A,,]2 | z4 | z4 | z4 | z4 | z A,A,,B,, | C,A,C,D, | E,2 E,,2 | %28
 [A,,,A,,]2 [A,,,A,,]2 || z4 | B,2 B,2 | [E,G,B,]2 [E,G,B,]2 | [E,G,B,]2 [E,,E,]2 |:[K:C] z4 | %34
 A,2 A,2 | A,/E,/F,/D,/ E,/C,/D,/B,,/ | [A,,E,A,]2 [A,,E,A,]2 | [A,,E,A,]2 [A,,E,A,]2 | %38
 [E,,B,,E,]4 | E2 z2 | A,2 A,2 | A,/E,/F,/D,/ E,/C,/D,/B,,/ | [A,,E,A,]2 [A,,E,A,]2 | %43
 [A,,E,A,]2 [E,,B,,E,]2 | [A,,,E,,A,,]2 [A,,,E,,A,,]2 :| z4 | C2 C2 | C/G,/A,/F,/ G,/E,/F,/D,/ | %48
 [C,,G,,C,]2 [C,,G,,C,]2 | [C,,G,,C,]2 [C,,G,,C,]2 | [G,,,G,,]2 [G,,,G,,]2 | [E,,E,]2 [E,,E,]2 | %52
 [F,,F,][G,,G,][A,,A,][F,,F,] | [G,,G,]2 [G,,G,]2 | [C,,C,]2 [C,,C,]2 || %55
V:3
 x4 | x4 | x4 | x4 | x4 | x4 | x4 | x4 | x4 | x4 | x4 | x4 | x4 :| x4 | x4 | x4 | x4 | x4 | x4 | %19
 x4 | x4 | c/B/A/B/ c/B/A/B/ | c/B/A/B/ c/B/A/B/ | c/B/A/B/ c/B/A/B/ | c x3 | x4 | x4 | x4 | x4 || %29
 x4 | x4 | x4 | x4 |:[K:C] x4 | x4 | x4 | x4 | x4 | x4 | x4 | x4 | x4 | x4 | x4 | x4 :| x4 | x4 | %47
 x4 | x4 | x4 | B2 B2 | x4 | x4 | x4 | x4 || %55
V:4
 x4 | x4 | x4 | x4 | x4 | x4 | x4 | x4 | x4 | x4 | x4 | x4 | x4 :| x4 | x4 | x4 | x4 | x4 | x4 | %19
 x4 | x4 | x4 | x4 | x4 | x4 | x4 | x4 | x4 | x4 || x4 | x4 | x4 | x4 |:[K:C] x4 | x4 | A,,2 A,,2 | %36
 x4 | x4 | x4 | x4 | x4 | A,,2 A,,2 | x4 | x4 | x4 :| x4 | x4 | x4 | x4 | x4 | x4 | x4 | x4 | x4 | %54
 x4 || %55

